!!!!SEGMENT: pl-kk--kk-i-388--015_anonim--ave-maris-stella.krn
!!!cenid: 18xx:1412
!!!COM: Anonim
!!!COM-rismID: pe30004985
!!!CDT:
!!!CNT:
!!!OTL: Ave Maris stella
!!!PDT:
!!!AGN: Sacred
!!!SMS-siglum: PL-Kk
!!!SMS-shelfmark: Kk.I.388
!!!SMS-shelfwork: 015 W
!!!SMS-variant:
!!!SMS-altvar:
!!!NIFC-rismSourceID: 1001140926
!!!NIFC-islandoraID: pl-kk:6939
!!!URL-pdf-islandora: https://repozytorium.nifc.pl/islandora/object/pl-kk%3A6939/datastream/PDF/view
!!!URL-scan: https://polish.musicsources.pl/pl/lokalizacje/galeria/rekopisy/5998 @EN{Scan on Polish Music Sources Website} @PL{Skany w portalu Dziedzictwo Muzyki Polskiej w otwartym dostÄ™pie}
!!!ONB-nifc:
!!!AIN: 1 alto 1 bass 1 soprn 1 tenor
!!!key:
**kern	**text	**kern	**text	**kern	**text	**kern	**text
*part4	*part4	*part3	*part3	*part2	*part2	*part1	*part1
*staff4	*staff4	*staff3	*staff3	*staff2	*staff2	*staff1	*staff1
*Ibass	*	*Itenor	*	*Ialto	*	*Isoprn	*
*I"Basso.	*	*I"Tenore.	*	*I"Alto.	*	*I"Soprano.	*
*I'B	*	*I'T	*	*I'A	*	*I'S	*
*clefF4	*	*clefC4	*	*clefC3	*	*clefC1	*
*k[f#]	*	*k[f#]	*	*k[f#]	*	*k[f#]	*
*G:	*	*G:	*	*G:	*	*G:	*
*M4/4	*	*M4/4	*	*M4/4	*	*M4/4	*
*met(C.)	*	*met(C.)	*	*met(C.)	*	*met(C.)	*
=1	=1	=1	=1	=1	=1	=1	=1
*2\right	*	*2\right	*	*2\right	*	*2\right	*
!LO:TX:t=P:problem=all\right&colon; global	!	!LO:TX:t=P:problem=all\right&colon; global	!	!LO:TX:t=P:problem=all\right&colon; global	!	!LO:TX:t=P:problem=all\right&colon; global	!
2G\	A-	2B\	A-	2g\	A-	2b\	A-
2F#\	-ve	2A\	-ve	2f#\	-ve	2dd\	-ve
=2	=2	=2	=2	=2	=2	=2	=2
2E\	a-	2G/	a-	2e\	a-	2g\	a-
2BB/	-ve	2G/	-ve	2d\	-ve	2g\	-ve
=3	=3	=3	=3	=3	=3	=3	=3
2C/	ma-	2G/	ma-	2e\	ma-	2.a\	ma-
2D\	-ris	4F#/	.	2d\	-ris	.	.
.	.	8G/L	-ris	.	.	8b\L	-ris
.	.	8A/J	.	.	.	8cc\J	.
=4	=4	=4	=4	=4	=4	=4	=4
!	!	!	!	!	!	!LO:N:vis=2.	!
2D\	stel-	2A/	stel-	2f#\	stel-	2cc\	stel-
4GG/	-la,	4G/	-la,	4g\	-la	4b\	-la
4r	.	4r	.	4r	.	4r	.
=5	=5	=5	=5	=5	=5	=5	=5
2G\	De-	2d\	De-	2b\	De-	2dd\	De-
2F#\	-i	2d\	-i	2a\	-i	2dd\	-i
=6	=6	=6	=6	=6	=6	=6	=6
2.E\	ma-	2.c#X\	ma-	2.a\	ma-	2.gg\	ma-
8D\L	-ter	8d\L	-ter	4a\	-ter	8ff#\L	-ter
8F#\J	.	8G\J	.	.	.	8dd\J	.
!	!	!LO:LB:g=original	!	!	!	!	!
=7	=7	=7	=7	=7	=7	=7	=7
2.AA/	al-	2A/	al-	2f#X\	al-	2a\	al-
!	!	!	!	!	!	!LO:LB:g=original	!
.	.	4G#X/	.	4fn\	.	4b\	.
4AA/	.	4Gn/	.	4e\	.	4cc#X\	.
!	!	!	!	!LO:LB:g=original	!	!	!
=8	=8	=8	=8	=8	=8	=8	=8
2.D\	-ma,	2.F#/	-ma,	2.d\	-ma	2.dd\	-ma,
4r	.	4r	.	4r	.	4r	.
!LO:LB:g=original	!	!	!	!	!	!	!
=9	=9	=9	=9	=9	=9	=9	=9
2G\	at-	2B\	at-	2g\	at-	2b\	at-
2F#\	-que	2A\	-que	2a\	-que	2dd\	-que
=10	=10	=10	=10	=10	=10	=10	=10
2E\	sem-	2B\	sem-	2g\	sem-	2gg\	sem-
2BB/	-per	4G/	.	2d\	-per	2g\	-per
.	.	4B\	-per	.	.	.	.
=11	=11	=11	=11	=11	=11	=11	=11
2AA/	sem-	2c\	sem-	2g\	sem-	2ee\	sem-
4D\	.	2A\	-per	2f#X\	-per	4dd\	-per
4D\	-per	.	.	.	.	4cc\	.
=12	=12	=12	=12	=12	=12	=12	=12
2D\	Vir-	2A\	Vir-	2f#\	Vir-	2cc\	vir-
4GG/	-go,	4G/	-go,	4g\	-go	4b\	-go,
4r	.	4r	.	4r	.	4r	.
=13	=13	=13	=13	=13	=13	=13	=13
2G\	fe-	4G/	fe-	2g\	fe-	4b\	fe-
.	.	4A/	.	.	.	4cc#X\	.
2F#\	-lix	2B\	-lix,	2f#\	-lix	2dd\	-lix
!	!	!LO:LB:g=original	!	!	!	!LO:LB:g=original	!
=14	=14	=14	=14	=14	=14	=14	=14
2E\	fe-	4B\	fe-	4g\	fe-	2gg\	fe-
.	.	4c#X\	.	2a\	.	.	.
4D\	.	4d\	.	.	.	4ff#\	.
4F#\	-lix	4A\	-lix	4f#\	-lix	4dd\	-lix
=15	=15	=15	=15	=15	=15	=15	=15
2.A\	celi	4A\	ce-	2f#X\	cae-	4a\	ce-
.	.	4A\	-li	.	.	4a\	-li
.	.	4G#X/	por-	4fn\	.	4b\	por-
4AA/	por-	4Gn/	.	4e\	-li	4cc#X\	.
!	!	!	!	!LO:LB:g=original	!	!	!
=16	=16	=16	=16	=16	=16	=16	=16
2D\	-ta,	2F#/	-ta,	2d\	porta	2dd\	-ta,
4r	.	4r	.	4r	.	4r	.
8D\	su(m)-	8d\	su(m)-	8d\	su(m)-	8dd\	sum-
8E\	-mens	8e\	-mens	8e\	-mens	8ee\	-mens
!LO:LB:g=original	!	!	!	!	!	!	!
=17	=17	=17	=17	=17	=17	=17	=17
2D\	il-	(>4d\	il-	(>4.d\	il-	4dd\	il-
.	.	8A\)	.	.	.	8ccn\	.
.	.	8r	.	8f#\)	.	8r	.
2D\	-lud	(>4A\	-lud	(>8f#\	-lud	4cc\	-lud,
.	.	.	.	8r	.	.	.
.	.	8G\)	.	4g\)	.	8b\	.
.	.	8r	.	.	.	8r	.
=18	=18	=18	=18	=18	=18	=18	=18
4D\	a-	4G/	a-	4d\	a-	4b\	a-
4D\	-ve	4F#/	-ve	4d\	-ve	4a\	-ve
4r	.	4r	.	4r	.	4r	.
8D\	Ga-	8d\	Ga-	8d\	Ga-	8dd\	Ga-
8D\	-bri-	8e\	-bri-	8e\	-bri-	8ee\	-bri-
!	!	!LO:LB:g=original	!	!	!	!LO:LB:g=original	!
=19	=19	=19	=19	=19	=19	=19	=19
4D\	-e-	(>4d\	-e-	2d\	-e-	4dd\	-e-
4FF#/	.	8A\)	.	.	.	8cc\	.
.	.	8r	.	.	.	8r	.
4FF#/	-lis	(<4A/	-lis	2d\	-lis	4cc\	-lis,
4GG/	.	4G/)	.	.	.	8b\	.
.	.	.	.	.	.	8r	.
=20	=20	=20	=20	=20	=20	=20	=20
4D\	o-	4G/	o-	4d\	o-	4b\	o-
4D\	-re,	4F#/	-re	4d\	-re	4a\	-re
4r	.	4r	.	4r	.	4r	.
8G\	fun-	8G/	fun-	8g\	fun-	8g\	fun-
8G\	-da	8G/	-da	8g\	-da	8g\	-da
=21	=21	=21	=21	=21	=21	=21	=21
2G\	nos	2G/	nos	2g\	nos	(>4g\	nos
.	.	.	.	.	.	4b\)	.
4G\	.	4G/	.	2g\	in	(>4b\	in
4GG/	in	4B/	in	.	.	4dd\)	.
!	!	!	!	!LO:LB:g=original	!	!	!
=22	=22	=22	=22	=22	=22	=22	=22
4GG/	pa-	4B\	pa-	4g\	pa-	4dd\	pa-
4GG/	-ce,	4B\	-ce	4g\	-ce	4dd\	-ce,
4r	.	4r	.	4r	.	4r	.
8GG/	mu-	8G/	mu-	8d\	mu-	8b\	mu-
8GG/	-tans	8G/	-tans	8d\	-tans	8b\	-tans
!LO:LB:g=original	!	!	!	!	!	!LO:LB:g=original	!
=23	=23	=23	=23	=23	=23	=23	=23
2GG/	He-	4.G/	He-	4.d\	He-	(>4b\	He-
.	.	.	.	.	.	4dd\)	.
.	.	8B\	.	8fn\	.	.	.
2GG/	-ve	2B\	-ve	2f\	-'ve	(>4dd\	-ve
.	.	.	.	.	.	4gg\)	.
!	!	!LO:LB:g=original	!	!	!	!	!
=24	=24	=24	=24	=24	=24	=24	=24
2.GG/	no-	2.B\	no-	2.fn\	no-	2.gg\	no-
4GG/	-men,	4B\	-men,	4f\	-men	4gg\	-men
=25	=25	=25	=25	=25	=25	=25	=25
4.C/	mu-	4.c\	mu-	4.e\	mu-	4.gg\	mu-
8C/	-tans	8c\	-tans	8g\	-tans	8ee\	-tans
4D\	He-	4B\	He-	4g\	He-	4dd\	He-
4D\	-ve	4c\	-ve	4d\	-ve	4f#/	-ve
=26	=26	=26	=26	=26	=26	=26	=26
4GG/	no-	4B\	no-	4d\	no-	4a\	no-
4GG/	-men,	4B\	-men,	4d\	-men,	4g\	-men.
2r	.	4r	.	2r	.	2r	.
.	.	4r	.	.	.	.	.
=27	=27	=27	=27	=27	=27	=27	=27
2G\	Vi-	2B\	Vi-	2g\	Vi-	2b\	Vi-
2F#\	-tam	2A\	-tam	2f#\	-tam	2dd\	-tam
=28	=28	=28	=28	=28	=28	=28	=28
2E\	pre-	2G/	pre-	2e\	pre-	2g\	pre-
2BB/	-sta	2G/	-sta	2d\	-sta	2g\	-sta
!	!	!	!	!LO:LB:g=original	!	!LO:LB:g=original	!
=29	=29	=29	=29	=29	=29	=29	=29
2C/	pre-	2G/	pre-	2e\	pre-	2.a\	pre-
2D/	-sta	4F#/	.	2d\	-sta	.	.
.	.	8G/L	-sta	.	.	8b\L	-sta
.	.	8A/J	.	.	.	8cc\J	.
=30	=30	=30	=30	=30	=30	=30	=30
2D/	pu-	2A\	pu-	2f#\	pu-	2cc\	pu-
4GG/	-ram,	4G\	-ram	4g\	-ram	4b\	-ram
!LO:TX:a:t=de+.	!	!	!	!	!	!	!
!LO:TX:a:i:t=+Vi=	!	!	!	!	!	!	!
4r	.	4r	.	4r	.	4r	.
!	!	!LO:LB:g=original	!	!	!	!	!
=31	=31	=31	=31	=31	=31	=31	=31
!LO:TX:a:t=P:problem=w ÅºrÃ³dle takty 31-34 zapisane u doÅ‚u strony	!	!	!	!	!	!	!
2G\	i-	2d\	i-	2b\	i-	2dd\	i-
2F#\	-ter	2d\	-ter	2a\	-ter	2dd\	-ter
=32	=32	=32	=32	=32	=32	=32	=32
2.E\	pa-	2.c#X\	pa-	2.a\	pa-	2.gg\	pa-
8D\L	.	8d\L	-ra	4a\	-ra	8ff#\L	-ra
8F#\J	.	8A\J	.	.	.	8dd\J	.
=33	=33	=33	=33	=33	=33	=33	=33
2.AA/	.	2A\	tu-	(>2f#X\	tu-	2a\	tu-
.	.	.	.	.	.	16qqb/LL	.
.	.	.	.	.	.	16qqa/	.
.	.	.	.	.	.	16qqg#X/	.
.	.	.	.	.	.	16qqa/JJ	.
.	.	4G#X/	.	4fn\	.	4b\	.
4AA/	-ra-	4Gn/	.	4e\	.	4cc#X\	.
=34	=34	=34	=34	=34	=34	=34	=34
4D\	-tum,	2.F#/	-tum,	2.d\)	-lum	2.dd\	-tum,
4D\	.	.	.	.	.	.	.
!LO:TX:a:t=Re ð„Œ	!	!	!	!	!	!	!
2r	.	.	.	.	.	.	.
.	.	4r	.	4r	.	4r	.
!LO:LB:g=original	!	!	!	!	!	!LO:PB:g=original	!
=35	=35	=35	=35	=35	=35	=35	=35
!LO:TX:a:i:t=tro ð„Œ.	!	!	!	!	!	!	!
2.G\	ut	2B\	ut	2g\	ut	2b\	Ut
.	.	2A\	vi-	2a\	vi-	2dd\	vi-
4F#\	vi-	.	.	.	.	.	.
=36	=36	=36	=36	=36	=36	=36	=36
!LO:N:vis=2.	!	!	!	!	!	!	!
2E\	-den-	2B\	-den-	2g\	-den-	2gg\	-den-
2BB/	-tes	4G/	.	2d\	-tes	2g\	-tes
.	.	4B\	-tes	.	.	.	.
=37	=37	=37	=37	=37	=37	=37	=37
2AA/	Je-	2c\	Je-	2g\	Je-	2ee\	Je-
4D\	.	2A\	-sum	2f#\	-sum	4dd\	.
4D\	-sum	.	.	.	.	4cc\	-sum
!	!	!	!	!LO:LB:g=original	!	!	!
=38	=38	=38	=38	=38	=38	=38	=38
!LO:N:vis=2.	!	!	!	!	!	!	!
(>2D\	Je-	2A\	Je-	2f#\	Je-	2cc\	Je-
4GG/)	-sum	4G/	-sum	4g\	-sum	4b\	-sum
4r	.	4r	.	4r	.	4r	.
!	!	!LO:LB:g=original	!	!	!	!	!
=39	=39	=39	=39	=39	=39	=39	=39
2G\	sem-	4G\	sem-	2g\	sem-	4b\	sem-
.	.	4A\	.	.	.	4cc#X\	.
2F#\	-per	2B\	-per,	2f#\	-per	2dd\	-per
=40	=40	=40	=40	=40	=40	=40	=40
2E\	col-	4B\	sem-	4g\	sem-	2gg\	sem-
.	.	4c#X\	.	2a\	.	.	.
4D\	.	4d\	.	.	.	4ff#\	.
4F#\	-le-	4A\	-per	4f#\	-per	4dd\	-per
=41	=41	=41	=41	=41	=41	=41	=41
2.A\	-te-	4A\	col-	2f#X\	col-	4a\	col-
.	.	4A\	-le-	.	.	4a\	-le-
!	!	!	!	!	!	!LO:LB:g=original	!
.	.	4G#X\	-te-	4fn\	.	4b\	-te-
4AA/	.	4Gn\	.	4e\	-le-	4cc#X\	.
=42	=42	=42	=42	=42	=42	=42	=42
2D\	-mur,	2F#/	-mur,	4d\	-te-	2dd\	-mur,
.	.	.	.	4d\	-mur	.	.
!LO:LB:g=original	!	!	!	!	!	!	!
4r	.	4r	.	4r	.	4r	.
8D\	sit	8d\	sit	8d\	sit	8dd\	sit
8E\	laus	8e\	laus	8e\	laus	8ee\	laus
=43	=43	=43	=43	=43	=43	=43	=43
2D\	De-	(>4d\	De-	(>4d\	De-	(>4dd\	De-
.	.	8A\)	.	8f#\)	.	8ccn\)	.
.	.	8r	.	8r	.	8r	.
2D\	-o	(>4A\	-o	(>4f#\	-o	(>4cc\	-o
.	.	8G\)	.	8g\)	.	8b\)	.
.	.	8r	.	8r	.	8r	.
=44	=44	=44	=44	=44	=44	=44	=44
4D\	Pa-	4G/	Pa-	4d\	Pa-	4b\	Pa-
4D\	-tri,	4F#/	-tri	4d\	-tri	4a\	-tri
!	!	!	!	!LO:LB:g=original	!	!	!
4r	.	4r	.	4r	.	4r	.
!LO:N:vis=8.	!	!	!	!	!	!	!
8D\	su(m)-	8d\	sum-	8d\	sum-	8dd\	sum-
8D\	-mo	8e\	-mo	8d\	-mo	8ee\	-mo
!	!	!LO:LB:g=original	!	!	!	!	!
=45	=45	=45	=45	=45	=45	=45	=45
4D\	Chri-	4d\	Chri-	2d\	Chri-	(>4dd\	Chri-
4FF#/	.	8A\	.	.	.	8cc\)	.
.	.	8r	.	.	.	8r	.
4FF#/	-sto	4A\	-sto	2d\	-sto	(>4cc\	-sto,
4GG/	.	8G\	.	.	.	8b\)	.
.	.	8r	.	.	.	8r	.
!	!	!	!	!	!	!LO:LB:g=original	!
=46	=46	=46	=46	=46	=46	=46	=46
4D\	de-	4G/	de-	4d\	de-	4b\	de-
4D\	-cus,	4F#/	-cus	4d\	-cus	4a\	-cus,
4r	.	4r	.	4r	.	4r	.
8G\	Spi-	8G/	Spi-	8g\	Spi-	8g\	Spi-
8G\	-ri-	8G/	-ri-	8g\	-ri-	8g\	-ri-
=47	=47	=47	=47	=47	=47	=47	=47
2G\	-tu-	2G/	-tu-	2g\	-tu-	(>4g\	-tu-
.	.	.	.	.	.	4b\)	.
4G\	.	4G/	.	2g\	-i	(>4b\	-i
4GG/	-i	4B/	-i	.	.	4dd\)	.
!LO:LB:g=original	!	!	!	!	!	!	!
=48	=48	=48	=48	=48	=48	=48	=48
4GG/	san-	4B\	san-	4g\	san-	4dd\	san-
4GG/	-cto	4B\	-cto	4g\	-cto	4dd\	-cto
4r	.	4r	.	4r	.	4r	.
8GG/	Spi-	8G/	Spi-	8d\	spi-	8b\	spi-
8GG/	-ri-	8G/	-ri-	8d\	-ri-	8b\	-ri-
=49	=49	=49	=49	=49	=49	=49	=49
2GG/	-tu-	4.G/	-tu-	4.d\	-tu-	(>4b\	-tu-
.	.	.	.	.	.	4dd\)	.
.	.	8B\	.	8fn\	.	.	.
2GG/	-i	2B\	-i	2f\	-i	(>4dd\	-i
.	.	.	.	.	.	4gg\)	.
=50	=50	=50	=50	=50	=50	=50	=50
2.GG/	san-	2.B\	san-	2.fn\	san-	2.gg\	san-
4GG/	-cto	4B\	-cto	4f\	-cto	4gg\	-cto
!	!	!LO:LB:g=original	!	!LO:LB:g=original	!	!LO:LB:g=original	!
=51	=51	=51	=51	=51	=51	=51	=51
4.C/	tri-	4.c\	tri-	4.e\	tri-	4.gg\	tri-
8C/	-bus	8c\	-bus	8g\	-bus	8ee\	-bus
4D\	ho-	4B\	ho-	4g\	ho-	4dd\	ho-
4D\	-nor	4c\	-nor	4d\	-nor	4f#/	-nor
=52	=52	=52	=52	=52	=52	=52	=52
4GG/	u-	4B\	u-	4d\	ho-	4g\	u-
2GG/	.	2B\	.	2fn\	.	2gg\	.
4GG/	-nus	4B\	-nus	4f\	-nor	4gg\	-nus,
=53	=53	=53	=53	=53	=53	=53	=53
4.C\	tri-	4.c\	tri-	4.e\	tri-	4aa\	tri-
.	.	.	.	.	.	8gg\L	-bus
8C\	-bus	8c\	-bus	8g\	-bus	8ee\J	.
4D\	ho-	4B\	ho-	4g\	ho-	4dd\	ho-
4D\	-nor	4c\	-nor	4d\	-nor	4f#/	-nor
=54	=54	=54	=54	=54	=54	=54	=54
4D\	u-	4B\	u-	4d\	u-	4a\	u-
4GG/	-nus.	4B\	-nus.	4d\	-nus.	4g\	-nus.
2r	.	4r	.	2r	.	2r	.
.	.	4r	.	.	.	.	.
!	!	!LO:TX:b:i:t=54.	!	!	!	!LO:TX:b:i:t=54.	!
==	==	==	==	==	==	==	==
*-	*-	*-	*-	*-	*-	*-	*-
!!!system-decoration: [(s1,s2,s3,s4)]
!!!RDF**kern: > = above
!!!RDF**kern: < = below
!!!EED: Antoni SzymaÅ„ski
!!!EEV: 2021-01-18
!!!ENC: Andrzej GrÄ™ziak
!!!END: 2021-01-15
!!!YEC: Copyright 2022 Narodowy Instytut Fryderyka Chopina (https://polishscores.org)
!!!YEM: Licence CC BY 4.0 (https://creativecommons.org/licenses/by/4.0)
